source/img/icons/icon-email.svg

<svg width="19" height="13" viewBox="0 0 19 13" fill="none" xmlns="http://www.w3.org/2000/svg">
<path fill-rule="evenodd" clip-rule="evenodd" d="M16.1393 10.4663L11.8089 6.5L16.1393 2.53365L15.5488 1.90264L9.25 7.67188L2.9512 1.90264L2.36069 2.53365L6.69111 6.5L2.36069 10.4663L2.9512 11.0974L7.33084 7.08594L9.25 8.84375L11.1692 7.08594L15.5488 11.0974L16.1393 10.4663ZM1.57597 0.25C0.76695 0.25 0.111115 0.948839 0.111115 1.80786V11.1921C0.111115 12.0525 0.76163 12.75 1.57597 12.75H16.924C17.7331 12.75 18.3889 12.0512 18.3889 11.1921V1.80786C18.3889 0.947478 17.7384 0.25 16.924 0.25H1.57597Z" fill="#FFD74B"/>
</svg>

<svg viewBox="0 0 19 13" xmlns="http://www.w3.org/2000/svg">
<path fill-rule="evenodd" clip-rule="evenodd" d="m16.1 10.5-4.3-4 4.3-4-.6-.6-6.3 5.8L3 1.9l-.6.6 4.3 4-4.3 4 .6.6 4.3-4 2 1.7 1.9-1.7 4.3 4 .6-.6ZM1.6.2C.8.3 0 1 0 1.9v9.4c0 .9.7 1.6 1.5 1.6h15.3c.8 0 1.5-.7 1.5-1.6V1.8c0-.9-.7-1.6-1.5-1.6H1.6Z"/>
</svg>
